X: 68
T:Waltz,5. TLY.067
M:3/8
L:1/16
S:Wm.Tildesley,Swinton,Lancs.1860s.
R:Waltz
O:England.
A:Lancashire.
H:1860.
Z:vmp.Taz Tarry.
K:Eb
A2|(GA)B2B2|(cd)e2e2|(F2G2A2)|(A2G2) e2|gfe(dcB)|e2g2b2|!
B2c2d2|e4:||:g2|(ba)f2f2|(fd)B2B2|(bg)e2e2|e2g2b2|!
(ba)f2f2|(fd)B2B2|(ed)(eg)(fd)|e4:||:c2|B3AG2|(e2d2)e2|!
(c2=B2)c2|A4F2|G3AB2|B3AG2|F3EF2|G4B2|!
B3AG2|(e2d2)e2|(c2=B2)c2|A4F2|G3AB2|B3AG2|F3EF2|E4:|]
